X:156
T:Blair’s Reel. RHu.152
S:R.Hughes MS,1823,Whitchurch,Shrops.
A:Whitchurch, Shropshire
Z:Tony Weatherall 2006
M:C
L:1/8
Q:1/2=100
R:Reel
K:G
g2 d>e d>e d>e|d>g b2d>g b2|c’2 a>b a>b a>b|a>g f>g a>f d2:|!
|:b>g f>g d>gB>d|G>B d>g f>a a2|bg fg dg Bd|GB dg bg g2:|

